X: 86
T: La Contess
%R: reel
B: Chas & Sam Thompson "Twenty Four Country Dances for the Year 1776", London 1776, p.43 #2
F: http://www.vwml.org/browse/browse-collections-dance-tune-books/browse-thompsons1776#
Z: 2014 John Chambers <jc:trillian.mit.edu> (added dance description)
M: 2/4
L: 1/16
K: Bb
% - - - - - - - - - - - - - - - - - - - - - - - - - - - - -
|:\
f4 fgfe | d4 dedc | B2F2B2F2 | B2d2f2b2 |\
f4 fgfe | d4 dedc | B2F2 GBAc | B8 :|
|:\
F2Ac e2cA | B2df b2fd | g2e2c2A2 | BABc B2B2 |\
F2Ac e2cA | B2df b2fd | g2e2c2A2 | B8 :|
|:\
b4 B4 | f2f2 F4 | G2B2A2c2 | BABc B2B2 |\
b2fd B2de | f2dB F2F2 | G2B2A2c2 | B8 :|
% - - - - - - - - - - Dance description - - - - - - - - - -
%%begintext align
%% Cast off 1 Cu. & turn .| lead thro' the bottom &
%% cast up :| hands 6 round .|| lead thro' the top &
%% cast off :|| lead out sides .||| :|||
%%endtext

%%sep 1 1 500
%%sep 1 1 500
